resources/svg/file-zip-fill.svg

<svg fill="currentColor" viewBox="0 0 24 24" xmlns="http://www.w3.org/2000/svg"><path d="M10 2V4H12V2H20.0066C20.5551 2 21 2.44405 21 2.9918V21.0082C21 21.5447 20.5552 22 20.0066 22H3.9934C3.44495 22 3 21.556 3 21.0082V2.9918C3 2.45531 3.44476 2 3.9934 2H10ZM12 4V6H14V4H12ZM10 6V8H12V6H10ZM12 8V10H14V8H12ZM10 10V12H12V10H10ZM12 12V14H10V17H14V12H12Z"/></svg>

<svg xmlns="http://www.w3.org/2000/svg" viewBox="0 0 24 24" fill="currentColor">
    <g>
        <path fill="none" d="M0 0h24v24H0z"/>
        <path d="M10 2v2h2V2h8.007c.548 0 .993.444.993.992v18.016a1 1 0 0 1-.993.992H3.993A.993.993 0 0 1 3 21.008V2.992A1 1 0 0 1 3.993 2H10zm2 2v2h2V4h-2zm-2 2v2h2V6h-2zm2 2v2h2V8h-2zm-2 2v2h2v-2h-2zm2 2v2h-2v3h4v-5h-2z"/>
    </g>
</svg>
